X: 126b
T: Fermoy Lasses Version 2
M: 4/4
L: 1/8
R: reel
K: Emin
GE ~E2 BE ~E2|GFGA B2BA|GE ~E2 BE GB|AFDF AcBA|
GE ~E2 BE ~E2|GFGA B2BA|~G2 GF GBdB|AFDF AcBA:||
~G2 BG dGBG|~G2 Bd efg2|~G2 BG dGBG|AFDF AcBA|
~G2 BG dGBG|~G2 Bd efg2|gage dedB|AFDF AcBA:||

